icon/cg/home.svg

<svg viewBox="0 0 24 24" fill="none" xmlns="http://www.w3.org/2000/svg" height="1em" width="1em">
  <path fill-rule="evenodd" clip-rule="evenodd" d="M21 8.77217L14.0208 1.79299C12.8492 0.621414 10.9497 0.621413 9.77817 1.79299L3 8.57116V23.0858H10V17.0858C10 15.9812 10.8954 15.0858 12 15.0858C13.1046 15.0858 14 15.9812 14 17.0858V23.0858H21V8.77217ZM11.1924 3.2072L5 9.39959V21.0858H8V17.0858C8 14.8767 9.79086 13.0858 12 13.0858C14.2091 13.0858 16 14.8767 16 17.0858V21.0858H19V9.6006L12.6066 3.2072C12.2161 2.81668 11.5829 2.81668 11.1924 3.2072Z" fill="currentColor"/>
</svg>

<svg width="24" height="24" fill="none" xmlns="http://www.w3.org/2000/svg"><path fill-rule="evenodd" clip-rule="evenodd" d="m21 8.772-6.98-6.979a3 3 0 0 0-4.242 0L3 8.571v14.515h7v-6a2 2 0 1 1 4 0v6h7V8.772Zm-9.808-5.565L5 9.4v11.686h3v-4a4 4 0 0 1 8 0v4h3V9.6l-6.393-6.394a1 1 0 0 0-1.415 0Z" fill="currentColor"/></svg>
